X: 1206
T: The Flogging Reel
M:C|
L:1/8
R:Reel
B:O'Neill's 1206
N:Collected by None Listed
Z:Transcribed by Trish O'Neil
K:G
(dc) \
|: B>(G{A}(3GFG) BGdG | B>(G{A}(3GFG) Bdgd | B>(G{A}(3GFG) BdcB | AGFG ABcB :|
|: T(gfg)d BGBd | {a}gfge fgaf | T(gfg)d BcdB | AGFG ABcA |
T(gfg)e BGBd | T(gfg)e fgaf | bgaf gedB | AGFG ABcA :|
| Bdg(d (3Bcd) (gd) | Bdgd BGGB | Ac=fd ((3ABc) (fc) | Ac=fc A=FFc |
| Bdg(d (3Bcd) (gd) | Bdef {a}gfga | bgaf gedB | AGFG ABcA |]


